X: 509
T: Aarne Tarvaisen's
R: mazurka
M: 3/4
K: Eminor
|:E>G|B>c B>A G>F|E2 e2 e2|B2 ^d2 d2|B2 e2 e>G|
B>c (3cBA G>F|E2 e2 e2|B2 ^d2 d>B|e2- e2:|
e>f|g>f e2 e>^d|f2 B2- B2|b2 a2- a>f|b>g e2- e>f|
g>f e2 e>d|c>B A2- A>G|F2 B2- B>^d|e2- e2 (3^def|
g>f e2- e>^d|f2 B2- B2|b>a a2 a>f|b>g e2 e>f|
g>f e2 e>d|c>B A2- A>_B|B>^d f>B d>B|e2 E2-||

